X: 29331
T: Newcastle
R: barndance
M: 4/4
K: Gmajor
D2|:"G" B2 d2 G2 "D" A2|"G" G3 A G2 "D" D2|"G" B2 d2 G2 d2|"C" e
"G" d2 B2 "D" A2 "G" G2|"C" E2 "Am" e4 dc|"G" d2 B2 "D" A3 G|1 "G
" G8:|2 "G" G6||
|:"Am" ef|"G" gfed g3 B|"Am" A2 g4 A2|"G" G3 A B2 F2|"C" E2 (e2
"G" gfed g3 B|"Am" A2 A2 c3 d|"Am" e2 B2 "D" A3 G|"G" G6:|

